!!!!SEGMENT: pl-wn--sd-xvi-qu-273--086_gomolka-mikolaj--naklon-o-panie-uszu-swoich.krn
!!!cenid: 15xx:291
!!!COM: Gomółka, Mikołaj
!!!COM-rismid: pe30013343
!!!CDT: ~1535->1591/04/30
!!!CNT: Polish
!!!GTL: Melodiae na psalterz polski
!!!OTL: LXXXVI. Nakłoń, o Panie, uszu swoich
!!!PDT: 1580
!!!AGN: Sacred
!!!SMS-siglum: PL-Wn
!!!SMS-shelfmark: SD XVI.Qu.273
!!!SMS-shelfwork: 086 G
!!!NIFC-rismid:
!!!ONB-nifc: Melodiae na psalterz polski
**kern	**text	**kern	**text	**kern	**text	**kern	**text
*part4	*part4	*part3	*part3	*part2	*part2	*part1	*part1
*staff4	*staff4	*staff3	*staff3	*staff2	*staff2	*staff1	*staff1
*clefF4	*	*clefC3	*	*clefC3	*	*clefC1	*
*k[b-]	*	*k[b-]	*	*k[b-]	*	*k[b-]	*
*d:	*	*d:	*	*d:	*	*d:	*
*M4/2	*	*M4/2	*	*M4/2	*	*M4/2	*
*met(C|)	*	*met(C|)	*	*met(C|)	*	*met(C|)	*
=1	=1	=1	=1	=1	=1	=1	=1
1AA	Na-	1A	Na-	1e	Na-	1a	Na-
2D/	-ťłoń/	2A	-ťłoń/	2f	-ťłoń/	2d	-ťłoń/
2D/	o	2f	o	2a	o	1dd	o
=2-	=2	=2	=2	=2	=2	=2	=2
1A	pá-	1e	pá-	2.a	pá	.	.
.	.	.	.	.	.	2cc#X	pá-
.	.	.	.	4g	.	.	.
2B-	-nie/	2d	-nie/	2f	nie/	2dd	-nie/
1G	u	1G	u	2g	u-	1b-	u
=3-	=3	=3	=3	=3	=3	=3	=3
.	.	.	.	1d	-ʃᴣu	.	.
2F#X	ʃᴣu	2A	ʃᴣu	.	.	2a	ʃᴣu
1G	ʃwo-	1B-	ʃwo-	1d	ʃwo-	1g	ʃwo-
=4-	=4	=4	=4	=4	=4	=4	=4
2D/	-ich	2A	-ich	2d	-ich	2f#X	-ich
2D/	A	2f	A	2d	A	2a	A
2A	nie	2e	nie	2c/	nie	2a	nie
2F	ӡá-	2f	ӡá-	2c/	ӡá-	2a	ӡá-
=5-	=5	=5	=5	=5	=5	=5	=5
1G	-rӡu-	1d	-rӡu-	4B-	-rӡu	1b-	-rӡu-
.	.	.	.	4c/	.	.	.
.	.	.	.	4d	.	.	.
.	.	.	.	4e	.	.	.
2D/	-(caj)	2d	-(caj)	2f	(caj)	2a	-(caj)
1C	mod	1e-X	mod	2g	mod	2.cc	mod
=6-	=6	=6	=6	=6	=6	=6	=6
.	.	.	.	2G	.	.	.
.	.	.	.	.	.	4b-	.
2D	l(itw)	1d	l(itw)	2F	l(itw)	2a	l(itw)
1E-X	mo-	.	.	1G	mo-	1g	mo-
.	.	2c#X	mo-	.	.	.	.
=7-	=7	=7	=7	=7	=7	=7	=7
2D/	-ich	1d	-ich:_Je-	2A	-ich:	2f#X	-ich:
2AA	Je-	.	.	2e	Je-	2a	Je-
!!LO:PB:g=original
2D/	-ʃtem	2d	ʃtem	2f#X	-ʃtem	2a	-ʃtem
2GG	cӡło-	2d	cӡło-	2g	cӡło-	2b#X	cӡło-
=8-	=8	=8	=8	=8	=8	=8	=8
1C	-wie-	1e	-wie-	1g	-wie-	1cc	-wie-
2.F	-ťiem	2f	-ťiem	2a	-ťiem	2cc	-ťiem
.	.	2f	u-	2A	u-	2a	u-
4E	u-	.	.	.	.	.	.
=9-	=9	=9	=9	=9	=9	=9	=9
2D/	-tra-	2f	-tra-	2A	-tra-	2a	-tra-
2C#X	-pio-	2e	-pio-	2A	-pio-	2a	-pio-
1D	-nym/	1d	-nym/	1A	-nym/	2.f	-nym/
.	.	.	.	.	.	4g/	.
=10-	=10	=10	=10	=10	=10	=10	=10
2AA	Od	2c#X/	Od	2A	Od	2a	Od
2BB-	wʃᴣe	2d	wʃᴣe	4f	wʃᴣe	2dd	wʃᴣe
.	.	.	.	4g	.	.	.
2AA	.	2e	.	2a	.	2cc#X	.
2D/	go	2f	go	2d	go	2dd	go
=11-	=11	=11	=11	=11	=11	=11	=11
4GG	świá	1g	świá-	1d	świá-	1b-	świá-
4AA	.	.	.	.	.	.	.
4BB-	.	.	.	.	.	.	.
4C	.	.	.	.	.	.	.
2D/	tá	2f	-tá	2d	-tá	2a	-tá
2AA	o-	2e	o-	2c/	o-	2cc	o-
=12-	=12	=12	=12	=12	=12	=12	=12
2BB-	-puʃᴣ	1d	-puʃᴣ-	2f	-puʃᴣ-	1b-	-puʃᴣ-
2GG	.	.	.	2g	.	.	.
1D	cӡo-	1d	-cӡo-	1f	cӡo-	1a	-cӡo-
=13-	=13	=13	=13	=13	=13	=13	=13
!!LO:N:vis=00
0AA/	-nym.	0c#X	-nym.	0e	-nym.	0a	-nym.
==	==	==	==	==	==	==	==
*-	*-	*-	*-	*-	*-	*-	*-
!!!RDF**kern: l = terminal long
!!!system-decoration: s1,s2,s3,s4
!!!ENC:Anna Matuszewska
!!!END:2020-02-15
!!!URL-scan: https://polona.pl/item/melodiae-na-psalterz-polski,Nzk3MTM4ODQ/202 Scan on Polona
!!!IIIF: https://polona.pl/iiif/item/Nzk3MTM4ODQ/manifest.json
